packages/icons/src/assets/sidebar.svg

<svg width="16" height="16" viewBox="0 0 16 16" fill="none" xmlns="http://www.w3.org/2000/svg">
<path d="M14.873 1.5C15.2191 1.50003 15.5 1.78051 15.5 2.12598V13.875C15.4999 14.2203 15.219 14.5 14.873 14.5H1.12598C0.780182 14.4998 0.500148 14.2202 0.5 13.875V2.12598C0.5 1.78061 0.78009 1.5002 1.12598 1.5H14.873ZM5.62207 13.249H14.2461V2.75195H5.62207V13.249ZM1.75293 13.249H4.36914V2.75195H1.75293V13.249Z" fill="#0A0A0A"/>
</svg>

<svg xmlns="http://www.w3.org/2000/svg" width="16" height="16" viewBox="0 0 16 16"><path d="M14.873 1.5c.346 0 .627.28.627.626v11.749a.626.626 0 0 1-.627.625H1.126a.626.626 0 0 1-.626-.625V2.126c0-.345.28-.626.626-.626zm-9.25 11.749h8.623V2.752H5.622zm-3.87 0h2.616V2.752H1.753z"/></svg>
